archdroid-icon-theme/Archdroid-Amber/emblems/scalable/emblem-darkcoin-circle.svg

<?xml version="1.0" encoding="UTF-8" standalone="no"?>
<!-- Created with Inkscape (http://www.inkscape.org/) -->

<svg
   xmlns:dc="http://purl.org/dc/elements/1.1/"
   xmlns:cc="http://creativecommons.org/ns#"
   xmlns:rdf="http://www.w3.org/1999/02/22-rdf-syntax-ns#"
   xmlns:svg="http://www.w3.org/2000/svg"
   xmlns="http://www.w3.org/2000/svg"
   xmlns:sodipodi="http://sodipodi.sourceforge.net/DTD/sodipodi-0.dtd"
   xmlns:inkscape="http://www.inkscape.org/namespaces/inkscape"
   width="22.577724mm"
   height="22.577551mm"
   viewBox="0 0 79.999811 79.999195"
   id="svg5988"
   version="1.1"
   inkscape:version="0.91 r13725"
   sodipodi:docname="emblem-darkcoin-circle.svg">
  <defs
     id="defs5990" />
  <sodipodi:namedview
     id="base"
     pagecolor="#ffffff"
     bordercolor="#666666"
     borderopacity="1.0"
     inkscape:pageopacity="0.0"
     inkscape:pageshadow="2"
     inkscape:zoom="1.56953125"
     inkscape:cx="-219.3264352911897"
     inkscape:cy="100.85072"
     inkscape:document-units="px"
     inkscape:current-layer="layer1"
     showgrid="false"
     fit-margin-top="0"
     fit-margin-left="0"
     fit-margin-right="0"
     fit-margin-bottom="0"
     inkscape:window-width="1366"
     inkscape:window-height="713"
     inkscape:window-x="0"
     inkscape:window-y="30"
     inkscape:window-maximized="1" />
  <metadata
     id="metadata5993">
    <rdf:RDF>
      <cc:Work
         rdf:about="">
        <dc:format>image/svg+xml</dc:format>
        <dc:type
           rdf:resource="http://purl.org/dc/dcmitype/StillImage" />
        <dc:title />
      </cc:Work>
    </rdf:RDF>
  </metadata>
  <g
     inkscape:label="Layer 1"
     inkscape:groupmode="layer"
     id="layer1"
     transform="translate(-190.09359,-391.01643)">
    <path
       style="fill:#3397cc"
       d="M 39.671875 0.001953125 C 21.86574908447269 0.1475346069335903 5.710750000000007 12.25420312500001 1.19921875 30.322265625 C -4.149781250000103 51.73526562499995 8.888265625000088 73.44854687499998 30.322265625 78.810546875 C 51.75726562500009 84.12954687500002 73.46464062500002 71.08973437499998 78.806640625 49.677734375 C 84.13864062500011 28.24373437499997 71.09692187500002 6.553453124999976 49.669921875 1.189453125 C 46.32257812500001 0.3578906249999996 42.96930572509765 -0.02500640869140562 39.671875 0.001953125 z M 20.298828125 25.86328125 L 20.908203125 25.86328125 L 21.6015625 25.86328125 L 25.349609375 25.86328125 L 25.822265625 25.86328125 L 29.8828125 25.86328125 L 32.392578125 25.86328125 L 52.6953125 25.86328125 C 61.56431249999991 25.86328125 64.68950000000001 28.81703125000001 64.6875 35.95703125 L 64.6875 44.771484375 C 64.6875 51.94548437499998 61.562359375 54.896484375 52.693359375 54.896484375 L 35.53515625 54.896484375 L 29.146484375 54.896484375 L 28.697265625 54.896484375 L 12.423828125 33.90625 L 22.576171875 33.90625 L 33.08203125 47.427734375 L 34.0546875 47.427734375 L 34.71875 47.427734375 L 35.8203125 47.427734375 L 37.5703125 47.427734375 L 42.923828125 47.427734375 L 50.51171875 47.427734375 C 54.32671875000008 47.427734375 55.8046875 46.32909375000003 55.8046875 42.24609375 L 55.8046875 38.29296875 C 55.8046875 34.15296875000001 54.32571875000005 33.10742187500006 50.51171875 33.107421875 L 34.720703125 33.107421875 L 34.720703125 44.43359375 L 29.49609375 37.669921875 L 20.298828125 25.86328125 z "
       transform="translate(190.09359,391.0164261853028)"
       id="path28" />
  </g>
</svg>

<svg xmlns="http://www.w3.org/2000/svg" viewBox="0 0 79.999811 79.999195"><path d="m39.672.002c-17.806.146-33.961 12.252-38.473 30.32-5.349 21.413 7.689 43.13 29.12 48.49 21.435 5.319 43.14-7.721 48.48-29.13 5.332-21.434-7.71-43.12-29.14-48.49-3.347-.832-6.701-1.214-9.998-1.188m-19.373 25.861h.609.693 3.748.473 4.061 2.51 20.303c8.869 0 11.994 2.954 11.992 10.09v8.814c0 7.174-3.125 10.125-11.994 10.125h-17.16-6.389-.449l-16.273-20.99h10.152l10.506 13.521h.973.664 1.102 1.75 5.354 7.588c3.815 0 5.293-1.099 5.293-5.182v-3.953c0-4.14-1.479-5.186-5.293-5.186h-15.791v11.326l-5.225-6.764-9.197-11.807" fill="#3397cc"/></svg>
